X:1
T:Title
L:1/8
Q:1/4=110
M:4/4
K:Bb
V:1 treble nm="Church Organ, Staff"
V:1
 B3 B A2 G2 | F2 G2 DE F2 | B3 B e2 d2 | GABc B2 A2 | B3 B A2 G2 | F2 G2 DE F2 | B3 B Bcde | %7
w: By~A.~F.~M.~Custance * * *|||||||
 d2 c2 B4 | B3 =B _d2 e2 | _d2 =B_B _AB =B2 | B3 _A ^F2 AB | _A2 ^F2 =F4 | B3 B A2 G2 | %13
w: ||||||
 F2 G2 DE F2 | B3 B B2 ec | B2 A2 B4 |] %16
w: |||

